X: 44
T:Gan Ainm
R:Reel
M:4/4
D:Session tape, Doolin 1987
Z:Bernie Stocks
K:D
FABd B2AF | ABdf e2de |1 f2ed B3B | A2FD EFD2 :|2 f2ef bafb |
afef d4 :| fabf a3f | defd e2de | FABd Bcdf | afde fefa |
bf~f2 a2fe | defd edBd | FABd Bdfg | afeg fdd2 :|
%Tunes 45-50 illustrate the use of the delayed or hammered roll.
%It is impossible to notate exactly what happens, but the effect
%can be heard in the playing of Tommy Peoples, Paddy Cronin etc.
<end>
<start>
